!!! OTL: Berkowitz266
!!! Chapter: 1
!!! Section: II
!!! Page: 62
!!! Mode: 
!!! Encoder: DJB
**kern
*staff1
*I"Piano
=1-
*clefG2
*k[b-e-]
*B-:
*M4/4
4c/
4f#/
4.g/
8c/
=2
4B-/
4en/
4f/
4r
=3
4e-/
4A/
4B-/
8f/L
8e-/J
=4
2d/
2c/
=5
4g/
4d/
4.e-/
8a/
=6
4cc\
4b-\
2d/
=7
4c/
4f#/
4.g/
8d/
=8
4e-/
4A/
2B-/
==
*-
